X:253
T:Fifty-Fifty
C:Fried Herman, adapted from "The Boat on Loch Lavan"
N:Play [AABB] x 3 then final A.
M:4/4
S:Colin Hume's website,  colinhume.com  - chords can also be printed below the stave.
Q:1/2=108
M:2/2
L:1/4
K:Em
P:A
|: e/f/ | "Em"ge "D"fd | "Em"ee/d/ "/"Be/f/ | "C"ge "D"fe/f/ | "Em"e3/^d/ "/"ee/f/ |\
"Em"ge "D"fd | "C"e/f/e/d/ "G/B"B/d/A/B/ | "Am"cA "Em"BG |1 "Am"A3/^G/ "/"A :|2 "Am"A3/^G/ "/"A2[K:Am] |
P:B
|: "Am"e/ag/ "/"a/g/e/g/ | "Am"e/g/a/b/ "F"ag/f/ | "C"e/fg/ "Dm"a/g/d/c/ | "G"BG/F/ "/"Gc/B/ |\
"Am"A/GB/ "/"A/G/E/G/ | "F"A/G/A/B/ "Dm"cd | "C"e/f/g/a/ "Em"ge | "Am"A3/^G/ "/"A2 :|

